public/images/footer/instagram.svg

<svg width="37" height="37" viewBox="0 0 37 37" fill="none" xmlns="http://www.w3.org/2000/svg">
<rect x="1" y="1" width="35" height="35" rx="17.5" stroke="white"/>
<path d="M22.497 15.3888C22.0003 15.3898 21.5964 14.9876 21.5955 14.4909C21.5945 13.9942 21.9967 13.5904 22.4936 13.5894C22.9905 13.5884 23.3944 13.9908 23.3954 14.4875C23.3961 14.9842 22.9939 15.3879 22.497 15.3888Z" fill="white"/>
<path fill-rule="evenodd" clip-rule="evenodd" d="M18.5072 22.3506C16.3807 22.3548 14.6532 20.6343 14.6491 18.5073C14.6449 16.3808 16.3658 14.653 18.4924 14.6489C20.6193 14.6447 22.3471 16.3662 22.3512 18.4925C22.3553 20.6195 20.6339 22.3465 18.5072 22.3506ZM18.495 16.0002C17.1148 16.0027 15.9975 17.1241 15.9999 18.5046C16.0026 19.8854 17.1243 21.0024 18.5045 20.9998C19.8852 20.9971 21.0026 19.8759 20.9999 18.4951C20.9972 17.1144 19.8755 15.9976 18.495 16.0002Z" fill="white"/>
<path fill-rule="evenodd" clip-rule="evenodd" d="M13.5745 11.404C14.0508 11.2174 14.5958 11.0896 15.3938 11.0519C16.1938 11.0135 16.4492 11.0048 18.4855 11.0009C20.5224 10.997 20.7778 11.0048 21.5777 11.0403C22.376 11.0748 22.9213 11.2007 23.3985 11.3853C23.8923 11.5756 24.3112 11.8317 24.7287 12.2475C25.1462 12.6638 25.4033 13.0813 25.596 13.5743C25.7824 14.0511 25.9102 14.5957 25.9481 15.3942C25.986 16.1939 25.9952 16.449 25.9991 18.4857C26.003 20.522 25.9947 20.7777 25.9598 21.5781C25.925 22.3759 25.7994 22.9214 25.6147 23.3985C25.4239 23.8922 25.1683 24.3112 24.7525 24.7287C24.3367 25.1464 23.9188 25.4032 23.4257 25.5962C22.949 25.7823 22.4044 25.9102 21.6064 25.9483C20.8064 25.9862 20.5511 25.9952 18.514 25.9991C16.4779 26.003 16.2225 25.9952 15.4225 25.96C14.6243 25.925 14.0787 25.7993 13.6017 25.6149C13.1079 25.4239 12.689 25.1685 12.2715 24.7525C11.8538 24.3365 11.5965 23.9187 11.404 23.4257C11.2174 22.9492 11.0901 22.4043 11.0519 21.6066C11.0138 20.8063 11.0048 20.5507 11.0009 18.5143C10.997 16.4777 11.005 16.2226 11.04 15.4226C11.0752 14.6241 11.2004 14.0788 11.3851 13.6013C11.5758 13.1077 11.8315 12.6891 12.2477 12.2713C12.6635 11.8539 13.0815 11.5963 13.5745 11.404ZM14.0885 24.3549C14.3531 24.4567 14.7501 24.5782 15.4813 24.6101C16.2725 24.6443 16.5095 24.6519 18.5115 24.648C20.5144 24.6443 20.7513 24.6358 21.5422 24.5987C22.2727 24.5639 22.6698 24.4409 22.9337 24.3379C23.2838 24.2011 23.5332 24.0376 23.7951 23.7754C24.0571 23.5122 24.2191 23.2621 24.3547 22.912C24.4568 22.6471 24.5781 22.2498 24.6099 21.5186C24.6446 20.7278 24.6519 20.4907 24.648 18.4881C24.6444 16.486 24.6359 16.2488 24.5982 15.4578C24.5637 14.7271 24.441 14.3301 24.3377 14.0664C24.2009 13.7157 24.0379 13.4669 23.7749 13.2047C23.512 12.9425 23.262 12.7809 22.9113 12.6453C22.6472 12.543 22.2496 12.422 21.5189 12.3902C20.7277 12.3554 20.4905 12.3484 18.488 12.3523C16.4859 12.3561 16.249 12.3642 15.458 12.4016C14.7271 12.4363 14.3305 12.559 14.0661 12.6623C13.7162 12.7991 13.4669 12.9617 13.2047 13.2249C12.9429 13.488 12.7809 13.7376 12.6453 14.0885C12.5437 14.3529 12.4215 14.7505 12.3901 15.4812C12.3556 16.2724 12.3483 16.5096 12.3522 18.5117C12.3559 20.5143 12.3644 20.7514 12.4015 21.5419C12.4358 22.2731 12.5595 22.6697 12.6623 22.9343C12.7991 23.284 12.9622 23.5333 13.2248 23.7955C13.488 24.0568 13.738 24.2193 14.0885 24.3549Z" fill="white"/>
</svg>

<svg xmlns="http://www.w3.org/2000/svg" width="37" height="37" fill="none"><rect width="35" height="35" x="1" y="1" stroke="#fff" rx="17.5"/><path fill="#fff" d="M22.497 15.389a.9.9 0 1 1-.003-1.8.9.9 0 0 1 .003 1.8"/><path fill="#fff" fill-rule="evenodd" d="M18.507 22.35a3.85 3.85 0 1 1-.015-7.7 3.85 3.85 0 0 1 .015 7.7M18.495 16a2.5 2.5 0 1 0 .01 5 2.5 2.5 0 0 0-.01-5" clip-rule="evenodd"/><path fill="#fff" fill-rule="evenodd" d="M13.575 11.404c.476-.187 1.02-.314 1.819-.352.8-.038 1.055-.047 3.091-.051s2.293.004 3.093.04c.798.034 1.343.16 1.82.344.494.19.913.447 1.33.863s.675.833.868 1.326c.186.477.314 1.022.352 1.82.038.8.047 1.055.051 3.092s-.004 2.292-.04 3.092c-.034.798-.16 1.343-.344 1.82-.191.494-.447.913-.862 1.33a3.7 3.7 0 0 1-1.327.868c-.477.186-1.022.314-1.82.352-.8.038-1.055.047-3.092.051s-2.291-.004-3.091-.039c-.799-.035-1.344-.16-1.821-.345a3.7 3.7 0 0 1-1.33-.862 3.7 3.7 0 0 1-.868-1.327c-.187-.477-.314-1.022-.352-1.82-.038-.8-.047-1.055-.051-3.092s.004-2.291.039-3.091c.035-.799.16-1.344.345-1.822.19-.493.447-.912.863-1.33a3.7 3.7 0 0 1 1.327-.867m.514 12.95c.264.103.661.224 1.392.256.792.034 1.028.042 3.03.038 2.003-.004 2.24-.012 3.031-.05.73-.034 1.128-.157 1.392-.26.35-.137.6-.3.861-.563a2.3 2.3 0 0 0 .56-.863c.102-.265.223-.662.255-1.393.035-.791.042-1.028.038-3.03-.004-2.003-.012-2.24-.05-3.031-.034-.73-.157-1.128-.26-1.392-.137-.35-.3-.6-.563-.861a2.3 2.3 0 0 0-.864-.56c-.264-.102-.661-.223-1.392-.255-.791-.035-1.028-.042-3.031-.038-2.002.004-2.239.012-3.03.05-.73.034-1.127.157-1.392.26-.35.137-.6.3-.861.563a2.3 2.3 0 0 0-.56.864c-.101.264-.223.662-.255 1.392-.034.791-.042 1.029-.038 3.03.004 2.003.012 2.24.05 3.03.034.732.158 1.129.26 1.393.137.35.3.6.563.861.263.262.513.424.864.56" clip-rule="evenodd"/></svg>
